Adwaita++/actions/22/go-parent-folder.svg

<svg height="22" width="22" xmlns="http://www.w3.org/2000/svg">
  <g fill="#444" transform="translate(3 3)">
    <path d="m2 1s-1 0-1 1v11s0 1 1 1h8.5v-1.5l-.5.5-2-2 4-4 3 3v-6c0-1-1-1-1-1h-5l-2-2z"/>
    <path d="m12 8-3 3 1 1 1-1v3h2v-3l1 1 1-1z"/>
  </g>
</svg>

<svg xmlns="http://www.w3.org/2000/svg" width="22" height="22" version="1.1">
 <defs>
  <style id="current-color-scheme" type="text/css">
   .ColorScheme-Text { color:#444444; } .ColorScheme-Highlight { color:#4285f4; }
  </style>
 </defs>
 <g transform="matrix(1,0,0,1,3,3)">
  <path class="ColorScheme-Text" d="M 2,1 C 2,1 1,1 1,2 V 13 C 1,13 1,14 2,14 H 10.5 V 12.5 L 10,13 8,11 12,7 15,10 V 4 C 15,3 14,3 14,3 H 9 L 7,1 Z" style="fill:currentColor"/>
  <path class="ColorScheme-Text" d="M 12,8 9,11 10,12 11,11 V 14 H 13 V 11 L 14,12 15,11 Z" style="fill:currentColor"/>
 </g>
</svg>
